X:366
T:Rawhide
C:Chris Thile (Merlefest Allstar Jam, 1998)
N:Transcribed by Steve Keating
R:bluegrass
L:1/8
Q:1/4=320
M:4/4
K:C
"First Break"z2 C2 E2 F2 | "C"[cG][cG] [cG][cG] [cG][cG] [cG][AG] | [cG][cG] [cG][cG] [cG][cG] [cG][AG] | 
[cG][cG] [cG][cG] [cG][cG] [cE][cE] | [E2_B,2] [E2B,2] z[EB,] [EB,][EB,] | "F"[F2A,2] [F2A,2] [FA,][FA,] [FA,][FA,] | 
[FA,][FA,] [FA,][FA,] [FA,][FA,] [FA,][DA,] | "C"A,/_B,/C zD EG GA | cA GG ED CD | 
"F"EF FF F2 FG | G/A/c cA cc f2 | "C"[ge][ge] [ge][ge] [ge][gd] c[cA] | [c2G2] [c2G2] z[cG] ED | 
"G"G,A, B,D GG GB | dd d2 dB GD | "C"C2 zC [EC][EC] [cEC][cEC] | [cE]A z2 G2 F2 | 
[cG][cG] [cG][cG] [cG][cG] [cG][AG] | [c/G/][B/^F/][BF] [BF][BF] [BF][BF] [BF][AF] | 
[cG][cG] [cG][cG] [cG][cE] [cE][cE] | [E2_B,2] [E2B,2] z[EB,] [EB,][EB,] | "F"[F2A,2] [F2A,2] [FA,][FA,] [FA,][FA,] | 
[FA,][FA,] [FA,][FA,] [FA,][FA,] [FA,][FG,] | "C"{_B,}=B,C zD EG GA | cA GF EC CD | 
{E}"F"FF FF FG Ac | c2 zc cc dc | "C"[gd]e [g2e2] ed cA | [c2G2] zc zA AA | "G"G,A, zA, B,A, B,C | 
DC DE FE B,B, | "C"CB, CD EG AB | c2 c2 zE EE | "E"E2 E^F ^GF GA | BA B^c d^f ed | 
ed BA Bd g^g | e^f ed ed e^c | "A"a2 cB gB BA | ^fA ef ed ed | ^cA =c^c AB A^G | 
G2 G2 AA E^F | "D"d^F zd ^fa bf | ab d'2 c'^c' a^f | ab ag ag f^f | d2 d2 dA ^FD | 
"G"G,4 D4 | B4 g4 | gb ge dc BA | _B=B GF zF ED | "C"C8 | "Second Break"z6 A,B, | 
CC CD EG cc | zG _BB zG AG | FC ^DE C=D CB, | _B,2 B,2 zG, D^G, | A,F A,A, F2 G,G | 
Ac cA c^d eg | de ae ga c'e | ge dc de zg | zg d^d dd dg | d^d dg d=d cA | dA cd cA cA | 
G2 FE CE DC | G,C B,G B,C DE | FE FG Ac zA | Bc zd eg ae | ga c'2 ga c'a | d/e/e ea _ba ba | 
ga ee g^d eg | ^d=d cA dA cd | cA cG Ac dA | cd ^dg d=d cd | ^dg zf g2 zg | _bg gg c'3d' | 
zd' zg c'2 zc' | gg c'f' zf' c'c' | c'_b ^fg bf =fc | ff {f}^dc df gd | cc' bg d'/e'/z c'_b | 
c'_b g2 g2 ba | g2 ze ag z2 | de ea ^d=d cA | c2 c2 zA ^DE | ED E^F ^GF GA | BA B^c d^f ed | 
ed BA Bd ed | g^g e^f ef ge | ae ^cA z2 d'/e'/e' | e'e' e'e' e'^c' ae | ^c'a e^c ae cA | 
e^c ee AB cA | d2 d^f bf ab | a^f bf a2 ef | de dB dB AA | G^G AA zA zA | gf ^cd fc =cG | 
cD _B/=B/z GE DE | FE FE DC B,A, | G,2 [DG,][DG,] [DG,][DG,] [D2G,2] | z8 | z8 | 


